X: 3
T: Monymusk
R: reel
M: 4/4
L: 1/8
K: Gmaj
|: e | d<GB>G d>Gc<e | d<GB>G (3ABA c>e |d<GB>G B<dd>g | e>cA>d B<GG :|
|: f |g>dB>g d>gB>g | g>dB>g c>gA>f |1 g>de>g d>gB>g |
e>cA>d B<GG :|2 g>de>g d<bc<a | B<gA<g B<GG ||


Tune 1387	Setting 14749

